X:1
T:Does Jesus Care?
T:Does Jesus Care?
T:Joseph Lincoln Hall
T:Frank Ellsworth Graeff, 1901
T:Public Domain Courtesy of the Cyber Hymnal™
T:Public Domain Courtesy of the Cyber Hymnal™
C:Joseph Lincoln Hall
Z:Public Domain
Z:Courtesy of the Cyber Hymnal™
%%score ( 1 2 ) ( 3 4 )
L:1/8
Q:1/4=108
M:6/8
K:Db
V:1 treble 
V:2 treble 
V:3 bass 
V:4 bass 
V:1
 [FA] | [DF]2 [DE] D2 [DB]/[DB]/ | [DA]2 [DG] [DF]2 ([DF]/[DF]/) | [CE][=B,=D][CE] [CA]2 [CG] | %4
w: 1.~Does|Je- sus care when my|heart is pained Too *|deep- ly for mirth or|
w: 2.~Does|Je- sus care when my|way is dark With *|a name- less dread and|
w: 3.~Does|Je- sus care when I’ve|tried and failed To~re- *|sist some temp- ta- tion|
w: 4.~Does|Je- sus care when I’ve|said “good- bye” To~the *|dear- est on earth to|
 [DF]3- [DF]2 [DF]/[EG]/ | [FA]2 [Fd] [Fd]2 [DF]/[DF]/ | [DE]2 [DB] [DB]2 [GB]/[GB]/ | %7
w: song, * As the|bur- dens press, and the|cares dis- tress And the|
w: fear? * As the|day- light fades in- to|deep night shades, Does He|
w: strong; * When for|my deep grief there is|no re- lief, Though my|
w: me, * And my|sad heart aches till it|near- ly breaks, Is it|
 [FA]2 [DF] [CA][CG][CE] | D3- D2 ||"^Refrain" [Fd] | [Gc]2 [EG] [Gc]2 [Ge] | %11
w: way grows wear- y and|long? *|||
w: care e- nough to be|near? *|||
w: tears flow all the night|long? *|||
w: aught to Him? Does He|see? *|||
 [Fd]2 [DF] [DA]2 [DF] | [CE]2 [Ec] [DB][DF][D=G] | A3- [CD] A3 [Gc]/[Gc]/ | %14
w: |||
w: |||
w: |||
w: |||
 [Fd]2 [Fe] [Fd][FA][DF] | E2 [DB] [Gd][Gc][GB] | [FA]2 D [CF]2 [CE] | (D2- B, [A,D]2) |] %18
w: ||||
w: ||||
w: ||||
w: ||||
V:2
 x | x3 D2 x | x6 | x6 | x6 | x6 | x6 | x6 | D3- D2 || x | x6 | x6 | x6 | C- C3 x4 | x6 | D2 x4 | %16
 x6 | x5 |] %18
V:3
 [D,D] | [D,A,]2 [D,F,] [D,F,]2 [D,G,]/[D,G,]/ | [D,F,]2 [D,B,] [F,A,]2 [D,A,] | %3
w: ~|~ ~ ~ ~ ~|~ ~ ~ ~|
 [A,,A,][A,,A,][A,,A,] [A,,E,]2 [A,,A,] | [D,A,]3- [D,A,]2 [D,A,]/[D,A,]/ | %5
w: ~ ~ ~ ~ ~|~ * ~ ~|
 [D,D]2 [D,A,] [D,A,]2 [D,A,]/[D,A,]/ | [G,B,]2 [G,B,] [G,B,]2 [G,D]/[G,D]/ | %7
w: ~ ~ ~ ~ ~|~ ~ ~ ~ ~|
 [D,D]2 [D,A,] [A,,A,][A,,E,][A,,G,] | [D,F,]3- [D,F,]2 || [D,A,] | [E,A,]2 [A,C] [A,E]2 [A,C] | %11
w: ~ ~ ~ ~ ~|~ *|Oh|yes, He cares, I|
 [D,D]2 [D,A,] [D,F,]2 [D,A,] | [E,A,]2 [E,A,] [E,=G,][E,A,][E,B,] | %13
w: know He cares, His|heart is touched with my|
 A,-[F,A,] G,3 [A,,A,]/[A,,A,]/ x2 | [D,A,]2 [D,A,] [D,A,][D,D][D,A,] | %15
w: grief; When the days are|wear- y, the long nights|
 [G,B,]2 [G,B,] [G,B,][G,C][G,D] | [D,D]2 [D,F,] [A,,A,]2 [A,,G,] | (F,2 G, [D,F,]2) |] %18
w: drear- y, I know my|Sav- ior cares. *||
V:4
 x | x6 | x6 | x6 | x6 | x6 | x6 | x6 | x5 || x | x6 | x6 | x6 | A,,3- A,,3 x2 | x6 | x6 | x6 | %17
 D,3- x2 |] %18

